Assets/TestScenes/LUTs/Identity.cube
LUT_1D_SIZE 3
LUT_1D_INPUT_RANGE 0 2
0 0 0
1.000000 1.000000 1.000000  #this line is multipliers
1 1 1